!!!OTL: 1554. Einladung zur Kirchweihe.
!!!ARE: Europa, Mitteleuropa, Deutschland, Ober - Bayern
!!!SCT: E1554
!!!TXL: @@GSW
!!!YEM: Copyright 1995, estate of Helmut Schaffrath.
**kern	**text
*ICvox	*
*M3/4	*
*k[b-e-a-]	*
*E-:	*
!LO:TX:a:t=Oberbayriſch. Kretʒſchmer II. 324.	!
{8g	All
8b-	enk
=1	=1
8ee-	Nachbarsleu-
8g	.
8b-	.
8a-	-ten
(<12gL	hab
12b-J	.
12ee-)	i
=2	=2
8dd	an-
8f	-ʒu-
8a-	-deu-
8g}	-ten,
{8f	daß
8dd	am
=3	=3
8ff	Sonnta
8f	.
8a-	bei
8g	uns
8f	Kir-
8dd	-tag
=4	=4
(8ee-L	is!
8ggJ	.
4b-)}	.
{8g	Thuts
8b-	enk
=5	=5
8ee-	ſchö
8g	be-
8b-	-neh-
8a-	-me,
8g	wenn
8ee-	ma
=6	=6
8dd	ʒ'ſam-
8f	-me-
8a-	-ke-
8g}	-me,
{8f	daß
8dd	nit
=7	=7
8ff	eb-
8f	-ba
8a-	ſo
8g	wie
8f	ſonſt'n
8dd	.
=8	=8
2ee-}	is!
!LO:TX:a:t=Jodeln.	!
{8b-	.
8b-	.
=9	=9
(8b-L	.
8dd	.
8ff	.
8aa-	.
8gg	.
8ffJ)	.
=10	=10
8ee-L	.
8gJ	.
4.b-^}	.
{8ee-	.
=11	=11
8ddL	.
8fJ	.
4a-^	.
8b-L	.
8ddJ	.
=12	=12
8ee-L	.
8gJ	.
4b-}	.
{8b-L	.
8b-J	.
=13	=13
(8b-L	.
8dd	.
8ff	.
8aa-	.
8gg	.
8ffJ)	.
=14	=14
8ee-L	.
8gJ	.
4.b-^}	.
{8ee-	.
=15	=15
8ddL	.
8fJ	.
4a-^	.
8b-L	.
8ddJ	.
=16	=16
2ee-}	.
{8b-L	.
8b-J	.
=17	=17
4b-	.
(8aa-L	.
8gg)	.
(8aa-	.
8ggJ)	.
=18	=18
(8ggL	.
8b-J)	.
4.ee-}	.
{8gg	.
=19	=19
(8ffL	.
8b-J)	.
4.dd	.
8ff	.
=20	=20
(8ee-L	.
8b-J	.
8ee-L)	.
8dd}	.
{(8ee-	.
8ggJ)	.
=21	=21
4bb-	.
(8aa-L	.
8gg)	.
(8aa-	.
8ggJ)	.
=22	=22
(8ggL	.
8b-J)	.
4.ee-}	.
{8gg	.
=23	=23
4ff	.
(8b-L	.
8ff)	.
(8aa-	.
8ddJ)	.
=24	=24
2ee-}	.
==	==
!!!AGN: Staende -, Bauern - Lied; Jodler
!!!ONB: ESAC (Essen Associative Code) Database: ERK3
!!!AMT: simple triple
!!!AIN: vox
!!!EED: Helmut Schaffrath
!!!EEV: 1.0
!!!RDF**kern: <= below
!!!GTL: Staendelieder (Berufslieder). 6. Bauernlieder (von und gegen Bauern).
!!!URL-scan: https://rosdok.uni-rostock.de/mcrviewer/recordIdentifier/rosdok_ppn745177999/iview2/phys_0397.iview2?x=-128.77276441889285&y=173.05356064718217&scale=0.5870222003877487&rotation=0&layout=singlePageLayout
!!!ENC: Anna Maria Matuszewska
!!!EEV: 2025/03/01
*-	*-
